public/iconset/Bell.svg

<?xml version="1.0" encoding="UTF-8"?>
<svg width="24px" height="24px" viewBox="0 0 24 24" version="1.1" xmlns="http://www.w3.org/2000/svg" xmlns:xlink="http://www.w3.org/1999/xlink">
    <!-- Generator: Sketch 48.1 (47250) - http://www.bohemiancoding.com/sketch -->
    <title>24x24</title>
    <desc>Created with Sketch.</desc>
    <defs></defs>
    <g id="Page-1" stroke="none" stroke-width="1" fill="none" fill-rule="evenodd">
        <g id="Bell">
            <rect id="24x24" x="0" y="0" width="24" height="24"></rect>
            <path d="M16.91,16.5 L16.36,10.5 C16.2211426,8.87121289 15.1768338,7.45946208 13.66,6.85 L13.66,6.6 C13.66,5.68873018 12.9212698,4.95000005 12.01,4.95000005 C11.0987302,4.95000005 10.36,5.68873018 10.36,6.6 L10.36,6.83 C8.8431662,7.43946208 7.79885737,8.85121289 7.66,10.48 L7.11,16.48 L6,16.48 L6,17.48 L18,17.48 L18,16.48 L16.91,16.5 Z M12,6 C12.322789,6.0018576 12.5953107,6.2403141 12.64,6.56 C12.4283786,6.52470114 12.2144948,6.50464954 12,6.5 C11.7855052,6.50464954 11.5716214,6.52470114 11.36,6.56 C11.4046893,6.2403141 11.677211,6.0018576 12,6 Z M8.09,16.5 L8.63,10.57 C8.76574192,8.80927315 10.2340484,7.44980762 12,7.44980762 C13.7659516,7.44980762 15.2342581,8.80927315 15.37,10.57 L15.91,16.5 L8.09,16.5 Z M10.5,18 L13.48,18 L13.48,19 L10.5,19 L10.5,18 Z" id="Shape" fill="#000000" fill-rule="nonzero"></path>
        </g>
    </g>
</svg>

<svg id="target" xmlns="http://www.w3.org/2000/svg" viewBox="0 0 24 24"><title>Bell </title><rect x="10.5" y="18" width="2.98" height="1"/><path d="M16.91,16.5l-.55-6a4.33,4.33,0,0,0-2.7-3.65V6.6a1.65,1.65,0,0,0-3.3,0v.23a4.33,4.33,0,0,0-2.7,3.65l-.55,6H6v1H18v-1ZM12,6a.65.65,0,0,1,.64.56A4.48,4.48,0,0,0,12,6.5a4.48,4.48,0,0,0-.64.06A.65.65,0,0,1,12,6ZM8.09,16.5l.54-5.93a3.38,3.38,0,0,1,6.74,0l.54,5.93Z"/></svg>
